package/converter/svg/thin/dice-two.svg

<svg xmlns="http://www.w3.org/2000/svg" viewBox="0 0 448 512"><!-- Font Awesome Pro 6.0.0-alpha2 by @fontawesome - https://fontawesome.com License - https://fontawesome.com/license (Commercial License) --><path d="M384 32H64C28.625 32 0 60.625 0 96V416C0 451.375 28.625 480 64 480H384C419.375 480 448 451.375 448 416V96C448 60.625 419.375 32 384 32ZM432 416C432 442.467 410.469 464 384 464H64C37.531 464 16 442.467 16 416V96C16 69.533 37.531 48 64 48H384C410.469 48 432 69.533 432 96V416ZM128 128C110.375 128 96 142.375 96 160S110.375 192 128 192S160 177.625 160 160S145.625 128 128 128ZM128 176C119.176 176 112 168.822 112 160S119.176 144 128 144S144 151.178 144 160S136.824 176 128 176ZM320 320C302.375 320 288 334.375 288 352S302.375 384 320 384S352 369.625 352 352S337.625 320 320 320ZM320 368C311.176 368 304 360.822 304 352S311.176 336 320 336S336 343.178 336 352S328.824 368 320 368Z "></path></svg>

<svg xmlns="http://www.w3.org/2000/svg" viewBox="0 0 448 512"><!--! Font Awesome Pro 6.6.0 by @fontawesome - https://fontawesome.com License - https://fontawesome.com/license (Commercial License) Copyright 2024 Fonticons, Inc. --><path d="M384 48c26.5 0 48 21.5 48 48l0 320c0 26.5-21.5 48-48 48L64 464c-26.5 0-48-21.5-48-48L16 96c0-26.5 21.5-48 48-48l320 0zM64 32C28.7 32 0 60.7 0 96L0 416c0 35.3 28.7 64 64 64l320 0c35.3 0 64-28.7 64-64l0-320c0-35.3-28.7-64-64-64L64 32zM320 336a16 16 0 1 1 0 32 16 16 0 1 1 0-32zm0 48a32 32 0 1 0 0-64 32 32 0 1 0 0 64zM112 160a16 16 0 1 1 32 0 16 16 0 1 1 -32 0zm48 0a32 32 0 1 0 -64 0 32 32 0 1 0 64 0z"/></svg>
